system/theme/src/images/linkedin.svg

<svg xmlns="http://www.w3.org/2000/svg" viewBox="0 0 16 16"><path stroke="none" d="M13.634,13.629 L11.263,13.629 L11.263,9.919 C11.263,9.035 11.247,7.896 10.030,7.896 C8.795,7.896 8.606,8.860 8.606,9.855 L8.606,13.629 L6.234,13.629 L6.234,6.000 L8.510,6.000 L8.510,7.043 L8.542,7.043 C9.006,6.250 9.869,5.777 10.788,5.811 C13.191,5.811 13.634,7.392 13.634,9.445 L13.634,13.629 ZM3.560,4.958 C2.800,4.958 2.184,4.343 2.184,3.583 C2.183,2.824 2.799,2.209 3.559,2.208 C4.319,2.208 4.935,2.823 4.935,3.583 L4.935,3.583 C4.936,4.342 4.320,4.957 3.560,4.958 M4.746,13.629 L2.372,13.629 L2.372,6.000 L4.745,6.000 L4.746,13.629 ZM14.816,0.007 L1.181,0.007 C0.536,0.000 0.008,0.516 -0.000,1.160 L-0.000,14.839 C0.007,15.484 0.536,16.000 1.181,15.993 L14.816,15.993 C15.461,16.000 15.991,15.484 16.000,14.839 L16.000,1.160 C15.991,0.515 15.461,-0.000 14.816,0.007z"></path></svg>

<svg xmlns="http://www.w3.org/2000/svg" viewBox="0 0 16 16"><path stroke="none" d="M2.4,6h2.4v7.6H2.4V6z M3.6,2.2c0.8,0,1.4,0.6,1.4,1.4C4.9,4.3,4.3,5,3.6,5C2.8,5,2.2,4.3,2.2,3.6C2.2,2.8,2.8,2.2,3.6,2.2C3.6,2.2,3.6,2.2,3.6,2.2 M6.2,6h2.3v1h0C9,6.2,9.9,5.8,10.8,5.8c2.4,0,2.8,1.6,2.8,3.6v4.2h-2.4V9.9c0-0.9,0-2-1.2-2c-1.2,0-1.4,1-1.4,2v3.8H6.2V6z M13,0H3C1,0,0,1,0,3v10c0,2,1,3,3,3h10c2,0,3-1,3-3V3C16,1,15,0,13,0zz"/></svg>
